X:1
T:Quando sara ch'io possa
T:Lodovico Agostini
T:Quando sara ch'io possa
C:Lodovico Agostini
%%score [ 1 2 3 4 ]
L:1/8
Q:1/4=112
M:4/2
K:C
V:1 alto1 nm="Soprano" snm="S"
V:2 alto2 nm="Alto" snm="A"
V:3 alto nm="Tenor" snm="T"
V:4 tenor nm="Bass" snm="B"
V:1
 z16 | B4 B2 B2 c4 c4 | d6 d2 d4 d4 | c8 B8- | B4 ^c4 d4 G4 | ^F8 z4 G4- | G2 G2 G4 A8- | %7
w: |Quan- do sa- ra ch'io|pos- sa al mio mar-|ti- re,|_ Tro- var pie-|ta poi|_ che mia fer-|
 A4 A4 G8 | ^F4 A4 A4 B4 | c4 c4 B6 B2 | A4 G4 F8 | E8 G8 | E4 ^F4 G6 G2 | G4 c4 d4 c2 c2- | %14
w: * ma fe-|de, E no- ta ho-|mai a chi del|mio mo- ri-|re, So-|la e ca- gion ben|che cru- del nol cre-|
 c2 BA B4 c8 | z4 A4 G8 | E8 E4 A4- | A4 A4 A8- | A8 A8- | A4 G4 G8 | ^F12 A4 | B4 c4 c4 ^c4 | %22
w: * * * * de,|A- mor|poi che per|_ si lon-|* go|_ ser- vi-|re, Da|lei non spe- ro|
 d6 d2 d4 d2 c2- | c2 BA B4 c4 z2 A2- | A2 A2 A4 _B8- | B4 _B4 A4 A4 | G12 G4 | ^F8 G8 | %28
w: mai d'ha- ver mer- ce-|* * * * de, Tu|_ che'l poi far|_ pro- ve- di al|mio do-|lo- re,|
[M:3/2][Q:1/4=168] G4 G4 G4 | G8 A4 | A4 A4 B4 | c4 B8 | c8 z4 | B4 B4 B4 | c8 ^c4 | d4 _B4 A4 | %36
w: Ch'a me sa-|lu- te e a|te ri- sul-|ta ho- no-|re,|Ch'a me sa-|lu- te e a|te ri- sul-|
 A4 G8 | G12 |] %38
w: ta ho- no-|re.|
V:2
 z16 | G4 G2 G2 G4 A4 | _B6 B2 B4 A4 | A8 ^G8- | G4 A4 A4 D4 | D8 z4 D4- | D2 D2 E4 F8- | %7
w: |Quan- do sa- ra ch'io|pos- sa al mio mar-|ti- re,|_ Tro- var pie-|ta poi|_ che mia fer-|
 F4 F4 D8 | D4 F4 E4 G4 | G4 A4 G6 G2 | E4 E4 C8 | C4 G4 E4 D2 D2- | D2 ^C2 D2 D2 D4 z2 D2 | %13
w: * ma fe-|de, E no- ta ho-|mai a chi del|mio mo- ri-|re, So- la e ca- gion,|_ So- la e ca- gion ben|
 E4 F6 G4 E2 | G8 G8 | z4 F4 E8 | C12 C4 | F4 F4 E8- | E8 F8- | F4 D4 _E8 | D12 ^F4 | G4 A4 G4 A4 | %22
w: che cru- del nol|cre- de,|A- mor|poi che|per si lon-|* go|_ ser- vi-|re, Da|lei non spe- ro|
 A6 A2 _B4 A4 | G8 G4 z2 F2- | F2 F2 F4 F8- | F4 G4 E4 F4 | D12 C4 | D8 D8 |[M:3/2] _E4 E4 E4 | %29
w: mai d'ha- ver mer-|ce- de, Tu|_ che'l poi far|_ pro- ve- di al|mio do-|lo- re,|Ch'a me sa-|
 D8 F4 | E4 F4 D4 | G4 G8 | G8 z4 | G4 G4 G4 | G8 A4 | A4 G4 E4 | F4 D8 | E12 |] %38
w: lu- te e a|te ri- sul-|ta ho- no-|re,|Ch'a me sa-|lu- te e a|te ri- sul-|ta ho- no-|re.|
V:3
 z16 | D4 D2 D2 E4 F4 | F6 F2 G4 F4 | E8 E8- | E4 E4 D4 _B,4 | A,8 z4 B,4- | B,2 B,2 C4 C8- | %7
w: |Quan- do sa- ra ch'io|pos- sa al mio mar-|ti- re,|_ Tro- var pie-|ta poi|_ che mia fer-|
 C4 C4 _B,8 | A,4 D4 C4 D4 | E4 F4 D6 D2 | C4 B,4 A,8 | G,8 C6 B,2 | A,2 A,4 A,2 B,6 B,2 | %13
w: * ma fe-|de, E no- ta ho-|mai a chi del|mio mo- ri-|re, So- *|* la e ca- gion ben|
 C4 F,4 _B,4 C4 | G,8 C8- | C8 z4 C4 | G,6 G,2 G,4 A,4 | C4 D8 C2 B,2 | C8 C8- | C4 B,4 C8 | %20
w: che cru- del nol|cre- de,|_ A-|mor poi che per|si lon- * *|* go|_ ser- vi-|
 A,12 D4 | D4 F4 E4 E4 | F6 F2 F4 F4 | D8 E4 z2 C2- | C2 C2 C4 D8- | D4 D4 C8- | C4 _B,4 B,4 G,4 | %27
w: re, Da|lei non spe- ro|mai d'ha- ver mer-|ce- de, Tu|_ che'l poi far|_ pro- ve-|* di al mio do-|
 A,8 B,8 |[M:3/2] C4 C4 C4 | B,8 D4 | C4 C4 B,4 | E4 D8 | E8 z4 | D4 D4 D4 | E8 E4 | F4 D4 C4 | %36
w: lo- re,|Ch'a me sa-|lu- te e a|te ri- sul-|ta ho- no-|re,|Ch'a me sa-|lu- te e a|te ri- sul-|
 C4 C4 B,4 | C12 |] %38
w: ta ho- no- *|re.|
V:4
 z16 | G,4 G,2 G,2 C4 F,4 | _B,6 B,2 G,4 D,4 | A,8 E,8- | E,4 A,4 ^F,4 G,4 | D,8 z4 G,4- | %6
w: |Quan- do sa- ra ch'io|pos- sa al mio mar-|ti- re,|_ Tro- var pie-|ta poi|
 G,2 G,2 C,4 F,8- | F,4 F,4 G,8 | D,4 D,4 A,4 G,4 | C4 F,4 G,6 G,2 | A,4 E,4 F,8 | C,12 G,4 | %12
w: _ che mia fer-|* ma fe-|de, E no- ta ho-|mai a chi del|mio mo- ri-|re, So-|
 A,4 D,4 G,8 | z16 | z16 | F,8 C,8- | C,4 C,4 E,4 F,4- | F,4 D,4 A,8- | A,8 F,8- | F,4 G,4 C,8 | %20
w: la e ca- gion,|||A- mor|_ poi che per|_ si lon-|* go|_ ser- vi-|
 D,12 D,4 | G,4 F,4 C4 A,4 | D6 D2 _B,4 F,4 | G,8 C,4 z2 F,2- | F,2 F,2 F,4 _B,8- | %25
w: re, Da|lei non spe- ro|mai d'ha- ver mer-|ce- de, Tu|_ che'l poi far|
 B,4 G,4 A,4 F,4 | G,4 G,4 _E,8 | D,8 G,8 |[M:3/2] C,4 C,4 C,4 | G,8 D,4 | A,4 F,4 G,4 | C,4 G,8 | %32
w: _ pro- ve- di al|mio do- lo-|* re,|Ch'a me sa-|lu- te e a|te ri- sul-|ta ho- no-|
 C,8 z4 | G,4 G,4 G,4 | C8 A,4 | D4 G,4 A,4 | F,4 G,8 | C,12 |] %38
w: re,|Ch'a me sa-|lu- te e a|te ri- sul-|ta ho- no-|re.|

